assets/features/channel/southeast-asia/public-bank.svg

<svg width="80" height="80" viewBox="0 0 80 80" fill="none" xmlns="http://www.w3.org/2000/svg">
<rect x="0.5" y="0.5" width="79" height="79" rx="7.5" fill="white"/>
<rect x="0.5" y="0.5" width="79" height="79" rx="7.5" stroke="#EEEEEE"/>
<path fill-rule="evenodd" clip-rule="evenodd" d="M56 38.8786L54.6627 40.0693L56 41.2685V51.0954L46.9237 60.0337H33.2316L24 50.9487V41.4152L25.4926 40.0693L24 38.732V29.1984L33.3783 19.9668H46.7684L56 29.0517V38.8786ZM51.2375 46.1776L49.9002 44.8317L46.9237 47.8169H33.2316L30.2551 44.987L29.0644 46.1776L40.0733 57.1952L51.2375 46.1776ZM40.0733 44.987L45.1378 40.0779L40.0733 35.1601L35.1642 40.0779L40.0733 44.987ZM51.2375 33.9609L40.0733 22.9433L29.0644 33.9609L30.2551 35.2982L33.3783 32.1749H46.7684L49.9002 35.1515L51.2375 33.9609Z" fill="#E42126"/>
</svg>

<svg xmlns="http://www.w3.org/2000/svg" width="80" height="80" fill="none" viewBox="0 0 80 80"><rect width="79" height="79" x=".5" y=".5" fill="#fff" rx="7.5"/><rect width="79" height="79" x=".5" y=".5" stroke="#eee" rx="7.5"/><path fill="#e42126" fill-rule="evenodd" d="m56 38.879-1.337 1.19L56 41.27v9.826l-9.076 8.939H33.232L24 50.949v-9.534l1.493-1.346L24 38.732v-9.534l9.378-9.231h13.39L56 29.052zm-4.763 7.299L49.9 44.832l-2.976 2.985H33.232l-2.977-2.83-1.19 1.19 11.008 11.018zm-11.164-1.191 5.065-4.91-5.065-4.917-4.909 4.918zm11.164-11.026L40.073 22.943 29.064 33.961l1.191 1.337 3.123-3.123h13.39l3.132 2.977z" clip-rule="evenodd"/></svg>
